!!!OTL: IDS ELFIS ABE WOTT E FLOHNES
!!!ARE: Europa, Mitteleuropa, Schweiz
!!!SCT: E1095
!!!YEM: Copyright 1995, estate of Helmut Schaffrath.
**kern
*ICvox
*Ivox
!! Mixed meters:  2/4; 3/8
*M2/4
*k[f#c#g#]
*A:
{16cc#
16b
=1
8a
8a
8a
8e
=2
4a
4b
=3
*M3/8
4cc#
8r}
=4
{16cc#
16b
=5
*M2/4
8a
8a
8a
8e
=6
4a
4b
=7
*M3/8
4cc#
8r}
=8
{16a
16b
=9
*M2/4
8cc#
16cc#
16dd
8ee
16dd
16cc#
=10
*M3/8
8b
8e
8r}
=11
{16cc#
16dd
=12
*M2/4
4ee
4cc#
=13
8dd
16ee
16dd
8cc#
8b
=14
*M3/8
4cc#
8r}
=15
{8b
=16
*M2/4
8.a
16b
8cc#
16dd#
16dd#
=17
*M3/8
8ee
8e
8r}
=18
{16cc#
16ee
=19
8.ee
16ff#
16ee
16dd
=20
8.cc#
16b
8a
=21
4b
8cc#
=22
4a}
==
!!!AGN: Wunsch - Lied, Luegen - Maerchen, Schlaraffenland
!!!ONB: ESAC (Essen Associative Code) Database: ERK3
!!!AMT: irregular
!!!AIN: vox
!!!EED: Helmut Schaffrath
!!!EEV: 1.0
*-
